svgs/light/vector-square.svg

<svg xmlns="http://www.w3.org/2000/svg" viewBox="0 0 448 512"><!-- Font Awesome Pro 6.0.0-alpha2 by @fontawesome - https://fontawesome.com License - https://fontawesome.com/license (Commercial License) --><path d="M416 160C433.674 160 448 145.672 448 128V64C448 46.326 433.674 32 416 32H352C334.326 32 320 46.326 320 64V80H128V64C128 46.326 113.674 32 96 32H32C14.326 32 0 46.326 0 64V128C0 145.672 14.326 160 32 160H48V352H32C14.326 352 0 366.326 0 384V448C0 465.672 14.326 480 32 480H96C113.674 480 128 465.672 128 448V432H320V448C320 465.672 334.326 480 352 480H416C433.674 480 448 465.672 448 448V384C448 366.326 433.674 352 416 352H400V160H416ZM352 64H416V128H352V64ZM32 128V64H96V128H32ZM96 448H32V384H96V448ZM416 384V448H352V384H416ZM368 352H352C334.326 352 320 366.326 320 384V400H128V384C128 366.326 113.674 352 96 352H80V160H96C113.674 160 128 145.672 128 128V112H320V128C320 145.672 334.326 160 352 160H368V352Z"/></svg>

<svg xmlns="http://www.w3.org/2000/svg" viewBox="0 0 448 512"><!--! Font Awesome Pro 6.0.0-alpha3 by @fontawesome - https://fontawesome.com License - https://fontawesome.com/license (Commercial License) --><path d="M416 160c17.67 0 32-14.33 32-32V64c0-17.67-14.33-32-32-32h-64c-17.67 0-32 14.33-32 32v16H128V64c0-17.67-14.33-32-32-32H32C14.33 32 0 46.33 0 64v64c0 17.67 14.33 32 32 32h16v192H32c-17.67 0-32 14.33-32 32v64c0 17.67 14.33 32 32 32h64c17.67 0 32-14.33 32-32v-16h192V448c0 17.67 14.33 32 32 32h64c17.67 0 32-14.33 32-32v-64c0-17.67-14.33-32-32-32h-16V160H416zM352 64h64v64h-64V64zM32 128V64h64v64H32zM96 448H32v-64h64V448zM416 384v64h-64v-64H416zM368 352H352c-17.67 0-32 14.33-32 32v16H128V384c0-17.67-14.33-32-32-32H80V160H96c17.67 0 32-14.33 32-32V112h192V128c0 17.67 14.33 32 32 32h16V352z"/></svg>
